X:204
T:The moving bogs
R:Reel
O:Ireland
P:See also: Miss Wallace
B:Ceol Rince 3 n120
S:Ceol Rince 3 n120
Z:Transcription, chords:Mike Long
M:C|
L:1/8
K:G
"G"GEDE G2EG|"D"AD (3(FED) AD (3(FED)|"G"GEDE G2Bd|"C"(3(efg) dB "D"AGBA|\
"G"GEDE G2EG|
"D"AD (3(FED) AD (3(FED)|"G"~G3E G2Bd|"D"(3(efg) "G"dBG2|]\
ef|\
"G"~g3b "D"a3b|"G"gabg "D"agef|
"G"~g3b "D"agab|"G"gabg "D"a2ef|\
"G"~g3b "D"a3b|"G"gabg "D"agfg|"Em"e2df edBd|"C"gedB "D"AcBA|]
